Newaita-dark/apps/16/com.github.artemanufrij.findfileconflicts.svg

<svg height="16" viewBox="0 0 16 16" width="16" xmlns="http://www.w3.org/2000/svg" xmlns:xlink="http://www.w3.org/1999/xlink"><linearGradient id="a"><stop offset="0" stop-opacity=".313726"/><stop offset=".222222" stop-opacity=".27451"/><stop offset="1" stop-opacity="0"/></linearGradient><radialGradient id="b" cx="450.908936" cy="189.579361" gradientTransform="matrix(.00000009 -.0390662 -.0703192 -.00000005 22.261576 31.797665)" gradientUnits="userSpaceOnUse" r="21.166656" xlink:href="#a"/><radialGradient id="c" cx="450.908936" cy="189.579361" gradientTransform="matrix(-.00000009 .0390662 .0703192 .00000005 -6.385059 -3.763741)" gradientUnits="userSpaceOnUse" r="21.166656" xlink:href="#a"/><radialGradient id="d" cx="450.908936" cy="189.579361" gradientTransform="matrix(-.00000009 -.0390662 .0703192 -.00000005 -6.385059 31.797665)" gradientUnits="userSpaceOnUse" r="21.166656" xlink:href="#a"/><radialGradient id="e" cx="450.908936" cy="189.579361" gradientTransform="matrix(.00000009 .0390662 -.0703192 .00000005 22.261575 -3.763741)" gradientUnits="userSpaceOnUse" r="21.166656" xlink:href="#a"/><linearGradient id="f" gradientTransform="matrix(.00668003 0 0 .031253 6.232693 6.719392)" gradientUnits="userSpaceOnUse" x1="255.323059" x2="255.323044" y1="233.5" y2="254.666656"><stop offset="0" stop-opacity=".27451"/><stop offset="1" stop-opacity="0"/></linearGradient><linearGradient id="g" gradientUnits="userSpaceOnUse" x1="7.938262" x2="7.938262" y1="1.44805249998" y2="14.0169675"><stop offset="0" stop-color="#ff8a65"/><stop offset="1" stop-color="#ff7043"/></linearGradient><linearGradient id="h" gradientTransform="matrix(.0154845 .02682 -.02682 .0154845 4.885243 .410435)" gradientUnits="userSpaceOnUse" x1="344.628418" x2="163.846085" y1="123.740433" y2="-57.04192"><stop offset="0" stop-color="#ffa726"/><stop offset="1" stop-color="#ffb74d"/></linearGradient><linearGradient id="i" gradientUnits="userSpaceOnUse" x1="7.938262" x2="7.938262" y1="14.0169665" y2="1.44805149998"><stop offset="0" stop-color="#424242"/><stop offset="1" stop-color="#616161"/></linearGradient><linearGradient id="j" gradientTransform="matrix(-.031253 0 0 .031253 15.876515 6.719391)" gradientUnits="userSpaceOnUse" x1="254" x2="254" y1="233.5" y2="-168.666672"><stop offset="0" stop-color="#bdbdbd"/><stop offset="1" stop-color="#e0e0e0"/></linearGradient><path d="m9.097656 14.015625h1.320313v-.660156h-1.320313zm0 0" fill="url(#b)"/><path d="m6.78125 14.015625h-1.324219v.664063h1.324219zm0 0" fill="url(#c)"/><path d="m6.78125 14.015625h-1.324219v-.660156h1.324219zm0 0" fill="url(#d)"/><path d="m9.097656 14.015625h1.320313v.664063h-1.320313zm0 0" fill="url(#e)"/><path d="m6.78125 13.851562h2.316406v.828126h-2.316406zm0 0" fill="url(#f)"/><path d="m7.9375 1.449219c3.472656 0 6.285156 2.8125 6.285156 6.285156 0 3.46875-2.8125 6.28125-6.285156 6.28125-3.46875 0-6.285156-2.8125-6.285156-6.28125 0-3.472656 2.816406-6.285156 6.285156-6.285156zm0 0" fill="url(#g)"/><path d="m7.9375 14.015625c-3.480469 0-6.285156-2.800781-6.285156-6.28125 0-.023437 0-.042969 0-.0625.035156 3.453125 2.824218 6.222656 6.285156 6.222656s6.253906-2.769531 6.285156-6.222656v.0625c0 3.480469-2.804687 6.28125-6.285156 6.28125zm0 0" fill-opacity=".196078"/><path d="m7.9375 1.449219c-3.480469 0-6.285156 2.800781-6.285156 6.285156v.058594c.035156-3.453125 2.824218-6.222657 6.285156-6.222657s6.253906 2.769532 6.285156 6.222657c0-.019531 0-.039063 0-.058594 0-3.484375-2.804687-6.285156-6.285156-6.285156zm0 0" fill="#fff" fill-opacity=".392157"/><path d="m5.109375 9.363281c-.121094-.214843 1.101563-1.023437 1.050781-1.261719-.050781-.242187-1.5-.484374-1.472656-.730468.027344-.242188 1.492188-.179688 1.589844-.40625.101562-.222656-.925782-1.269532-.761719-1.453125.164063-.183594 1.3125.730469 1.523437.605469.214844-.121094 0-1.570313.238282-1.621094.242187-.050782.632812 1.359375.878906 1.386718.246094.023438.921875-1.277343 1.148438-1.175781.222656.101563-.289063 1.472657-.105469 1.640625.179687.164063 1.492187-.492187 1.617187-.277344.121094.210938-1.101562 1.023438-1.050781 1.261719.054687.242188 1.5.484375 1.472656.730469-.023437.242188-1.488281.179688-1.589843.402344-.101563.226562.925781 1.273437.761718 1.457031-.164062.183594-1.3125-.730469-1.523437-.609375-.214844.125.003906 1.574219-.238281 1.625-.242188.050781-.632813-1.359375-.878907-1.386719-.246093-.027343-.921875 1.273438-1.144531 1.175781-.226562-.101562.285156-1.472656.105469-1.640624-.183594-.164063-1.496094.492187-1.621094.277343zm0 0" fill="url(#h)"/><path d="m7.9375 1.402344c-3.507812 0-6.332031 2.824218-6.332031 6.332031 0 3.503906 2.824219 6.328125 6.332031 6.328125s6.332031-2.824219 6.332031-6.328125c0-3.507813-2.824219-6.332031-6.332031-6.332031zm0 .09375c3.457031 0 6.238281 2.78125 6.238281 6.238281 0 3.453125-2.78125 6.234375-6.238281 6.234375s-6.238281-2.78125-6.238281-6.234375c0-3.457031 2.78125-6.238281 6.238281-6.238281zm0 0" fill="#212121"/><path d="m4.621094 4.757812c-.175782.003907-.320313.148438-.320313.328126v.992187h-2.769531c-.136719.527344-.207031 1.082031-.207031 1.65625 0 .570313.070312 1.125.207031 1.652344h2.769531v.992187c0 .285156.335938.4375.546875.246094l2.980469-2.644531c.144531-.132813.144531-.363281 0-.496094l-2.980469-2.644531c-.054687-.050782-.132812-.082032-.207031-.082032-.007813 0-.011719 0-.019531 0zm0 0" fill="url(#i)"/><path d="m11.253906 4.757812c-.003906 0-.011718 0-.015625 0-.078125 0-.152343.03125-.210937.082032l-2.976563 2.644531c-.148437.132813-.148437.363281 0 .496094l2.976563 2.644531c.210937.191406.550781.039062.550781-.246094v-.992187h2.769531c.132813-.527344.207032-1.082031.207032-1.652344 0-.574219-.074219-1.128906-.207032-1.65625h-2.769531v-.992187c0-.179688-.144531-.324219-.324219-.328126zm0 0" fill="url(#j)"/><path d="m4.621094 4.757812c-.175782.003907-.320313.148438-.320313.328126v.246093c0-.179687.144531-.324219.320313-.328125h.019531c.074219 0 .152344.03125.207031.082032l2.980469 2.648437c.039063.035156.066406.078125.085937.121094.050782-.125.019532-.273438-.085937-.371094l-2.980469-2.644531c-.054687-.050782-.132812-.082032-.207031-.082032-.007813 0-.011719 0-.019531 0zm-3.089844 1.320313c-.136719.527344-.207031 1.082031-.207031 1.65625v.121094c.007812-.527344.082031-1.039063.207031-1.527344h2.769531v-.25zm0 0" fill="#efefef" fill-opacity=".313726"/><path d="m11.253906 4.757812c-.003906 0-.011718 0-.015625 0-.078125 0-.152343.03125-.210937.082032l-2.976563 2.644531c-.109375.097656-.136719.246094-.085937.371094.015625-.042969.046875-.085938.085937-.121094l2.976563-2.648437c.058594-.050782.132812-.082032.210937-.082032h.015625c.179688.003906.324219.148438.324219.328125v-.246093c0-.179688-.144531-.324219-.324219-.328126zm.324219 1.320313v.25h2.769531c.125.488281.195313 1 .203125 1.527344.003907-.039063.003907-.082031.003907-.121094 0-.574219-.074219-1.128906-.207032-1.65625zm0 0" fill="#efefef"/><path d="m7.894531 7.898438c-.019531.03125-.039062.058593-.066406.082031l-2.980469 2.644531c-.210937.191406-.546875.039062-.546875-.246094v.332032c0 .285156.335938.433593.546875.246093l2.980469-2.644531c.117187-.109375.140625-.28125.066406-.414062zm-6.023437 1.488281c.03125.109375.0625.222656.101562.332031h2.328125v-.332031zm0 0" fill-opacity=".235294"/><path d="m7.984375 7.898438c-.078125.132812-.054687.304687.066406.414062l2.976563 2.644531c.210937.1875.550781.039063.550781-.246093v-.332032c0 .285156-.339844.4375-.550781.246094l-2.976563-2.644531c-.027343-.023438-.050781-.050781-.066406-.082031zm3.59375 1.488281v.332031h2.328125c.035156-.109375.066406-.222656.097656-.332031zm0 0" fill-opacity=".235294"/><g fill="none" stroke="#212121" stroke-linecap="round" stroke-linejoin="round" stroke-opacity=".954839"><path d="m558.8443 575.378155c-21.257813.472396-38.73646 17.951043-38.73646 39.681252v119.988548h-334.928664c-16.533855 63.773441-25.03698 130.853653-25.03698 200.295844 0 68.969795 8.503125 136.050007 25.03698 199.823448h334.928664v119.988548c0 34.484898 40.626044 52.908336 66.13542 29.760939l360.43804-319.811996c17.478647-16.061459 17.478647-43.932815 0-59.994274l-360.43804-319.811996c-6.613542-6.141146-16.061459-9.920313-25.036981-9.920313-.944791 0-1.417187 0-2.361979 0zm0 0" stroke-width="11.338583" transform="scale(.00826902)"/><path d="m360.090613-62.764538c5.749451.124988 10.374009 4.749547 10.374009 10.498998v31.746968h88.616538c4.249594 16.873389 6.624367 34.621694 6.624367 52.994939 0 18.248258-2.374773 35.996563-6.624367 52.869951h-88.616538v31.746969c0 9.124128-10.873961 13.998663-17.623317 7.874248l-95.240905-84.61692c-4.749546-4.249594-4.749546-11.62389 0-15.873484l95.240905-84.616919c1.874821-1.624845 4.249595-2.62475 6.749356-2.62475zm0 0" stroke-width="3" transform="matrix(.031253 0 0 .031253 0 6.719392)"/></g></svg>

<?xml version="1.0" encoding="UTF-8"?>
<svg xmlns="http://www.w3.org/2000/svg" xmlns:xlink="http://www.w3.org/1999/xlink" width="16px" height="16px" viewBox="0 0 16 16" version="1.1">
<defs>
<radialGradient id="radial0" gradientUnits="userSpaceOnUse" cx="450.908936" cy="189.579361" fx="450.908936" fy="189.579361" r="21.166656" gradientTransform="matrix(0.0000000870852,-0.0390662,-0.0703192,-0.0000000507693,22.261576,31.797665)">
<stop offset="0" style="stop-color:rgb(0%,0%,0%);stop-opacity:0.313726;"/>
<stop offset="0.222222" style="stop-color:rgb(0%,0%,0%);stop-opacity:0.27451;"/>
<stop offset="1" style="stop-color:rgb(0%,0%,0%);stop-opacity:0;"/>
</radialGradient>
<radialGradient id="radial1" gradientUnits="userSpaceOnUse" cx="450.908936" cy="189.579361" fx="450.908936" fy="189.579361" r="21.166656" gradientTransform="matrix(-0.0000000870852,0.0390662,0.0703192,0.0000000507693,-6.385059,-3.763741)">
<stop offset="0" style="stop-color:rgb(0%,0%,0%);stop-opacity:0.313726;"/>
<stop offset="0.222222" style="stop-color:rgb(0%,0%,0%);stop-opacity:0.27451;"/>
<stop offset="1" style="stop-color:rgb(0%,0%,0%);stop-opacity:0;"/>
</radialGradient>
<radialGradient id="radial2" gradientUnits="userSpaceOnUse" cx="450.908936" cy="189.579361" fx="450.908936" fy="189.579361" r="21.166656" gradientTransform="matrix(-0.0000000870852,-0.0390662,0.0703192,-0.0000000507693,-6.385059,31.797665)">
<stop offset="0" style="stop-color:rgb(0%,0%,0%);stop-opacity:0.313726;"/>
<stop offset="0.222222" style="stop-color:rgb(0%,0%,0%);stop-opacity:0.27451;"/>
<stop offset="1" style="stop-color:rgb(0%,0%,0%);stop-opacity:0;"/>
</radialGradient>
<radialGradient id="radial3" gradientUnits="userSpaceOnUse" cx="450.908936" cy="189.579361" fx="450.908936" fy="189.579361" r="21.166656" gradientTransform="matrix(0.0000000870852,0.0390662,-0.0703192,0.0000000507693,22.261575,-3.763741)">
<stop offset="0" style="stop-color:rgb(0%,0%,0%);stop-opacity:0.313726;"/>
<stop offset="0.222222" style="stop-color:rgb(0%,0%,0%);stop-opacity:0.27451;"/>
<stop offset="1" style="stop-color:rgb(0%,0%,0%);stop-opacity:0;"/>
</radialGradient>
<linearGradient id="linear0" gradientUnits="userSpaceOnUse" x1="255.323059" y1="233.5" x2="255.323044" y2="254.666656" gradientTransform="matrix(0.00668003,0,0,0.031253,6.232693,6.719392)">
<stop offset="0" style="stop-color:rgb(0%,0%,0%);stop-opacity:0.27451;"/>
<stop offset="1" style="stop-color:rgb(0%,0%,0%);stop-opacity:0;"/>
</linearGradient>
<linearGradient id="linear1" gradientUnits="userSpaceOnUse" x1="254" y1="-168.666672" x2="254" y2="233.5" gradientTransform="matrix(0.031253,0,0,0.031253,0,6.719392)">
<stop offset="0" style="stop-color:rgb(100%,54.11765%,39.607844%);stop-opacity:1;"/>
<stop offset="1" style="stop-color:rgb(100%,43.921569%,26.274511%);stop-opacity:1;"/>
</linearGradient>
<linearGradient id="linear2" gradientUnits="userSpaceOnUse" x1="344.628418" y1="123.740433" x2="163.846085" y2="-57.04192" gradientTransform="matrix(0.0154845,0.02682,-0.02682,0.0154845,4.885243,0.410435)">
<stop offset="0" style="stop-color:rgb(100%,65.490198%,14.901961%);stop-opacity:1;"/>
<stop offset="1" style="stop-color:rgb(100%,71.764708%,30.19608%);stop-opacity:1;"/>
</linearGradient>
<linearGradient id="linear3" gradientUnits="userSpaceOnUse" x1="254" y1="233.5" x2="254" y2="-168.666672" gradientTransform="matrix(0.031253,0,0,0.031253,0,6.719391)">
<stop offset="0" style="stop-color:rgb(25.882354%,25.882354%,25.882354%);stop-opacity:1;"/>
<stop offset="1" style="stop-color:rgb(38.039216%,38.039216%,38.039216%);stop-opacity:1;"/>
</linearGradient>
<linearGradient id="linear4" gradientUnits="userSpaceOnUse" x1="254" y1="233.5" x2="254" y2="-168.666672" gradientTransform="matrix(-0.031253,0,0,0.031253,15.876515,6.719391)">
<stop offset="0" style="stop-color:rgb(74.117649%,74.117649%,74.117649%);stop-opacity:1;"/>
<stop offset="1" style="stop-color:rgb(87.843138%,87.843138%,87.843138%);stop-opacity:1;"/>
</linearGradient>
</defs>
<g id="surface1">
<path style=" stroke:none;fill-rule:nonzero;fill:url(#radial0);" d="M 9.097656 14.015625 L 10.417969 14.015625 L 10.417969 13.355469 L 9.097656 13.355469 Z M 9.097656 14.015625 "/>
<path style=" stroke:none;fill-rule:nonzero;fill:url(#radial1);" d="M 6.78125 14.015625 L 5.457031 14.015625 L 5.457031 14.679688 L 6.78125 14.679688 Z M 6.78125 14.015625 "/>
<path style=" stroke:none;fill-rule:nonzero;fill:url(#radial2);" d="M 6.78125 14.015625 L 5.457031 14.015625 L 5.457031 13.355469 L 6.78125 13.355469 Z M 6.78125 14.015625 "/>
<path style=" stroke:none;fill-rule:nonzero;fill:url(#radial3);" d="M 9.097656 14.015625 L 10.417969 14.015625 L 10.417969 14.679688 L 9.097656 14.679688 Z M 9.097656 14.015625 "/>
<path style=" stroke:none;fill-rule:nonzero;fill:url(#linear0);" d="M 6.78125 13.851562 L 9.097656 13.851562 L 9.097656 14.679688 L 6.78125 14.679688 Z M 6.78125 13.851562 "/>
<path style=" stroke:none;fill-rule:nonzero;fill:url(#linear1);" d="M 7.9375 1.449219 C 11.410156 1.449219 14.222656 4.261719 14.222656 7.734375 C 14.222656 11.203125 11.410156 14.015625 7.9375 14.015625 C 4.46875 14.015625 1.652344 11.203125 1.652344 7.734375 C 1.652344 4.261719 4.46875 1.449219 7.9375 1.449219 Z M 7.9375 1.449219 "/>
<path style=" stroke:none;fill-rule:nonzero;fill:rgb(0%,0%,0%);fill-opacity:0.196078;" d="M 7.9375 14.015625 C 4.457031 14.015625 1.652344 11.214844 1.652344 7.734375 C 1.652344 7.710938 1.652344 7.691406 1.652344 7.671875 C 1.6875 11.125 4.476562 13.894531 7.9375 13.894531 C 11.398438 13.894531 14.191406 11.125 14.222656 7.671875 C 14.222656 7.691406 14.222656 7.710938 14.222656 7.734375 C 14.222656 11.214844 11.417969 14.015625 7.9375 14.015625 Z M 7.9375 14.015625 "/>
<path style=" stroke:none;fill-rule:nonzero;fill:rgb(100%,100%,100%);fill-opacity:0.392157;" d="M 7.9375 1.449219 C 4.457031 1.449219 1.652344 4.25 1.652344 7.734375 C 1.652344 7.753906 1.652344 7.773438 1.652344 7.792969 C 1.6875 4.339844 4.476562 1.570312 7.9375 1.570312 C 11.398438 1.570312 14.191406 4.339844 14.222656 7.792969 C 14.222656 7.773438 14.222656 7.753906 14.222656 7.734375 C 14.222656 4.25 11.417969 1.449219 7.9375 1.449219 Z M 7.9375 1.449219 "/>
<path style=" stroke:none;fill-rule:nonzero;fill:url(#linear2);" d="M 5.109375 9.363281 C 4.988281 9.148438 6.210938 8.339844 6.160156 8.101562 C 6.109375 7.859375 4.660156 7.617188 4.6875 7.371094 C 4.714844 7.128906 6.179688 7.191406 6.277344 6.964844 C 6.378906 6.742188 5.351562 5.695312 5.515625 5.511719 C 5.679688 5.328125 6.828125 6.242188 7.039062 6.117188 C 7.253906 5.996094 7.039062 4.546875 7.277344 4.496094 C 7.519531 4.445312 7.910156 5.855469 8.15625 5.882812 C 8.402344 5.90625 9.078125 4.605469 9.304688 4.707031 C 9.527344 4.808594 9.015625 6.179688 9.199219 6.347656 C 9.378906 6.511719 10.691406 5.855469 10.816406 6.070312 C 10.9375 6.28125 9.714844 7.09375 9.765625 7.332031 C 9.820312 7.574219 11.265625 7.816406 11.238281 8.0625 C 11.214844 8.304688 9.75 8.242188 9.648438 8.464844 C 9.546875 8.691406 10.574219 9.738281 10.410156 9.921875 C 10.246094 10.105469 9.097656 9.191406 8.886719 9.3125 C 8.671875 9.4375 8.890625 10.886719 8.648438 10.9375 C 8.40625 10.988281 8.015625 9.578125 7.769531 9.550781 C 7.523438 9.523438 6.847656 10.824219 6.625 10.726562 C 6.398438 10.625 6.910156 9.253906 6.730469 9.085938 C 6.546875 8.921875 5.234375 9.578125 5.109375 9.363281 Z M 5.109375 9.363281 "/>
<path style=" stroke:none;fill-rule:nonzero;fill:rgb(12.941177%,12.941177%,12.941177%);fill-opacity:1;" d="M 7.9375 1.402344 C 4.429688 1.402344 1.605469 4.226562 1.605469 7.734375 C 1.605469 11.238281 4.429688 14.0625 7.9375 14.0625 C 11.445312 14.0625 14.269531 11.238281 14.269531 7.734375 C 14.269531 4.226562 11.445312 1.402344 7.9375 1.402344 Z M 7.9375 1.496094 C 11.394531 1.496094 14.175781 4.277344 14.175781 7.734375 C 14.175781 11.1875 11.394531 13.96875 7.9375 13.96875 C 4.480469 13.96875 1.699219 11.1875 1.699219 7.734375 C 1.699219 4.277344 4.480469 1.496094 7.9375 1.496094 Z M 7.9375 1.496094 "/>
<path style=" stroke:none;fill-rule:nonzero;fill:url(#linear3);" d="M 4.621094 4.757812 C 4.445312 4.761719 4.300781 4.90625 4.300781 5.085938 L 4.300781 6.078125 L 1.53125 6.078125 C 1.394531 6.605469 1.324219 7.160156 1.324219 7.734375 C 1.324219 8.304688 1.394531 8.859375 1.53125 9.386719 L 4.300781 9.386719 L 4.300781 10.378906 C 4.300781 10.664062 4.636719 10.816406 4.847656 10.625 L 7.828125 7.980469 C 7.972656 7.847656 7.972656 7.617188 7.828125 7.484375 L 4.847656 4.839844 C 4.792969 4.789062 4.714844 4.757812 4.640625 4.757812 C 4.632812 4.757812 4.628906 4.757812 4.621094 4.757812 Z M 4.621094 4.757812 "/>
<path style=" stroke:none;fill-rule:nonzero;fill:url(#linear4);" d="M 11.253906 4.757812 C 11.25 4.757812 11.242188 4.757812 11.238281 4.757812 C 11.160156 4.757812 11.085938 4.789062 11.027344 4.839844 L 8.050781 7.484375 C 7.902344 7.617188 7.902344 7.847656 8.050781 7.980469 L 11.027344 10.625 C 11.238281 10.816406 11.578125 10.664062 11.578125 10.378906 L 11.578125 9.386719 L 14.347656 9.386719 C 14.480469 8.859375 14.554688 8.304688 14.554688 7.734375 C 14.554688 7.160156 14.480469 6.605469 14.347656 6.078125 L 11.578125 6.078125 L 11.578125 5.085938 C 11.578125 4.90625 11.433594 4.761719 11.253906 4.757812 Z M 11.253906 4.757812 "/>
<path style=" stroke:none;fill-rule:nonzero;fill:rgb(93.725491%,93.725491%,93.725491%);fill-opacity:0.313726;" d="M 4.621094 4.757812 C 4.445312 4.761719 4.300781 4.90625 4.300781 5.085938 L 4.300781 5.332031 C 4.300781 5.152344 4.445312 5.007812 4.621094 5.003906 C 4.628906 5.003906 4.632812 5.003906 4.640625 5.003906 C 4.714844 5.003906 4.792969 5.035156 4.847656 5.085938 L 7.828125 7.734375 C 7.867188 7.769531 7.894531 7.8125 7.914062 7.855469 C 7.964844 7.730469 7.933594 7.582031 7.828125 7.484375 L 4.847656 4.839844 C 4.792969 4.789062 4.714844 4.757812 4.640625 4.757812 C 4.632812 4.757812 4.628906 4.757812 4.621094 4.757812 Z M 1.53125 6.078125 C 1.394531 6.605469 1.324219 7.160156 1.324219 7.734375 C 1.324219 7.773438 1.324219 7.816406 1.324219 7.855469 C 1.332031 7.328125 1.40625 6.816406 1.53125 6.328125 L 4.300781 6.328125 L 4.300781 6.078125 Z M 1.53125 6.078125 "/>
<path style=" stroke:none;fill-rule:nonzero;fill:rgb(93.725491%,93.725491%,93.725491%);fill-opacity:1;" d="M 11.253906 4.757812 C 11.25 4.757812 11.242188 4.757812 11.238281 4.757812 C 11.160156 4.757812 11.085938 4.789062 11.027344 4.839844 L 8.050781 7.484375 C 7.941406 7.582031 7.914062 7.730469 7.964844 7.855469 C 7.980469 7.8125 8.011719 7.769531 8.050781 7.734375 L 11.027344 5.085938 C 11.085938 5.035156 11.160156 5.003906 11.238281 5.003906 C 11.242188 5.003906 11.25 5.003906 11.253906 5.003906 C 11.433594 5.007812 11.578125 5.152344 11.578125 5.332031 L 11.578125 5.085938 C 11.578125 4.90625 11.433594 4.761719 11.253906 4.757812 Z M 11.578125 6.078125 L 11.578125 6.328125 L 14.347656 6.328125 C 14.472656 6.816406 14.542969 7.328125 14.550781 7.855469 C 14.554688 7.816406 14.554688 7.773438 14.554688 7.734375 C 14.554688 7.160156 14.480469 6.605469 14.347656 6.078125 Z M 11.578125 6.078125 "/>
<path style=" stroke:none;fill-rule:nonzero;fill:rgb(0%,0%,0%);fill-opacity:0.235294;" d="M 7.894531 7.898438 C 7.875 7.929688 7.855469 7.957031 7.828125 7.980469 L 4.847656 10.625 C 4.636719 10.816406 4.300781 10.664062 4.300781 10.378906 L 4.300781 10.710938 C 4.300781 10.996094 4.636719 11.144531 4.847656 10.957031 L 7.828125 8.3125 C 7.945312 8.203125 7.96875 8.03125 7.894531 7.898438 Z M 1.871094 9.386719 C 1.902344 9.496094 1.933594 9.609375 1.972656 9.71875 L 4.300781 9.71875 L 4.300781 9.386719 Z M 1.871094 9.386719 "/>
<path style=" stroke:none;fill-rule:nonzero;fill:rgb(0%,0%,0%);fill-opacity:0.235294;" d="M 7.984375 7.898438 C 7.90625 8.03125 7.929688 8.203125 8.050781 8.3125 L 11.027344 10.957031 C 11.238281 11.144531 11.578125 10.996094 11.578125 10.710938 L 11.578125 10.378906 C 11.578125 10.664062 11.238281 10.816406 11.027344 10.625 L 8.050781 7.980469 C 8.023438 7.957031 8 7.929688 7.984375 7.898438 Z M 11.578125 9.386719 L 11.578125 9.71875 L 13.90625 9.71875 C 13.941406 9.609375 13.972656 9.496094 14.003906 9.386719 Z M 11.578125 9.386719 "/>
<path style="fill:none;stroke-width:11.338583;stroke-linecap:round;stroke-linejoin:round;stroke:rgb(12.941177%,12.941177%,12.941177%);stroke-opacity:0.954839;stroke-miterlimit:4;" d="M 558.8443 575.378155 C 537.586487 575.850551 520.10784 593.329198 520.10784 615.059407 L 520.10784 735.047955 L 185.179176 735.047955 C 168.645321 798.821396 160.142196 865.901608 160.142196 935.343799 C 160.142196 1004.313594 168.645321 1071.393806 185.179176 1135.167247 L 520.10784 1135.167247 L 520.10784 1255.155795 C 520.10784 1289.640693 560.733884 1308.064131 586.24326 1284.916734 L 946.6813 965.104738 C 964.159947 949.043279 964.159947 921.171923 946.6813 905.110464 L 586.24326 585.298468 C 579.629718 579.157322 570.181801 575.378155 561.206279 575.378155 C 560.261488 575.378155 559.789092 575.378155 558.8443 575.378155 Z M 558.8443 575.378155 " transform="matrix(0.00826902,0,0,0.00826902,0,0)"/>
<path style="fill:none;stroke-width:3;stroke-linecap:round;stroke-linejoin:round;stroke:rgb(12.941177%,12.941177%,12.941177%);stroke-opacity:0.954839;stroke-miterlimit:4;" d="M 360.090613 -62.764538 C 365.840064 -62.63955 370.464622 -58.014991 370.464622 -52.26554 L 370.464622 -20.518572 L 459.08116 -20.518572 C 463.330754 -3.645183 465.705527 14.103122 465.705527 32.476367 C 465.705527 50.724625 463.330754 68.47293 459.08116 85.346318 L 370.464622 85.346318 L 370.464622 117.093287 C 370.464622 126.217415 359.590661 131.09195 352.841305 124.967535 L 257.6004 40.350615 C 252.850854 36.101021 252.850854 28.726725 257.6004 24.477131 L 352.841305 -60.139788 C 354.716126 -61.764633 357.0909 -62.764538 359.590661 -62.764538 C 359.715649 -62.764538 359.965625 -62.764538 360.090613 -62.764538 Z M 360.090613 -62.764538 " transform="matrix(0.031253,0,0,0.031253,0,6.719392)"/>
</g>
</svg>
